X:109
T:Lady Shaftsbury’s Delight. JJo.109
S:J.Jones MS,1801,N.Shrops.
N:Bar 1:A, is written as B, in MS.
N:Bar 13: first f is written as g in MS.
A:N Shropshire
Z:Neil Brookes 2006
M:4/4
L:1/8
Q:1/2=80
K:F
A/G/|F>CA,>C F>GA>d|cAGF E G2A/G/|F>CA,>C FGAd|cAGA F3:|!
c|fedc {e}f2 Fd|cA.G.F .EG2c|fedc {e}f2 Fd|cAGA F3 c|!
fedc cdef|gGGG GABd|c>dcB GFGA|FA/G/ FCF3|]

